X: 14037
T: Fraser Arms, The
R: reel
M: 4/4
K: Gminor
B,|:({B,}D2)DB FDEC|({B,}D2)DB FDdB|cABG FDEC|1 ({B,}D2)Dd cAGB,:|2 ({B,}D2)Dd cAG2]||
fddb fdec|fddf gabg|fddb fdec|DFBd cAG2|
fddb fdec|fddf gabg|fdcA BGFE|DCB,d cAG||

